svgs/sharp-regular/integral.svg

<svg xmlns="http://www.w3.org/2000/svg" viewBox="0 0 320 512"><!--! Font Awesome Pro 6.6.0 by @fontawesome - https://fontawesome.com License - https://fontawesome.com/license (Commercial License) Copyright 2024 Fonticons, Inc. --><path d="M136 0l24 0L272 0l24 0 0 24 0 72 0 24-48 0 0-24 0-48-64 0 0 440 0 24-24 0L48 512l-24 0 0-24 0-72 0-24 48 0 0 24 0 48 64 0 0-440 0-24z"/></svg>

<svg xmlns="http://www.w3.org/2000/svg" viewBox="0 0 320 512"><!--! Font Awesome Pro 6.5.2 by @fontawesome - https://fontawesome.com License - https://fontawesome.com/license (Commercial License) Copyright 2024 Fonticons, Inc. --><path d="M136 0h24H272h24V24 96v24H248V96 48H184V488v24H160 48 24V488 416 392H72v24 48h64V24 0z"/></svg>
